jsapp/svg-icons/question.svg

<svg height="40" viewBox="0 0 40 40" width="40" xmlns="http://www.w3.org/2000/svg"><path d="m23.414 10 4.586 4.586v13.414c0 1.103-.897 2-2 2h-12c-1.103 0-2-.897-2-2v-16c0-1.102.897-2 2-2zm2.587 18-.001-12h-4v-4h-8v16zm-2.5597445-6.7490234c0 .7233109-.1199532 1.3544081-.3598632 1.8933105-.2399101.5389024-.5711242.9712712-.9936524 1.2971191l1.262207.9990235-1.1655273.9882812-1.6811523-1.3535156c-.1575529.0214845-.3151034.0322266-.4726563.0322266-.5048853 0-.9667948-.0886222-1.3857422-.2658692-.4189474-.1772469-.7797022-.4323713-1.0822754-.7653808-.3025731-.3330095-.5380037-.7376279-.7062988-1.2138672-.1682951-.4762394-.2524414-1.0133434-.2524414-1.6113281v-.3168946c0-.5979847.0832511-1.1350887.2497559-1.6113281.1665047-.4762394.4001449-.8808577.7009277-1.2138672.3007827-.3330095.6606424-.589029 1.0795898-.7680664.4189474-.1790373.8808569-.2685547 1.3857422-.2685547.4977239 0 .9560526.0895174 1.375.2685547.4189474.1790374.7797023.4350569 1.0822754.7680664s.5388989.7376278.7089844 1.2138672.2551269 1.0133434.2551269 1.6113281zm-1.9174804-.3276368c0-.7770221-.1298002-1.3669413-.3894043-1.7697753-.2596042-.4028341-.6311011-.6042481-1.114502-.6042481-.5013046 0-.8772774.201414-1.1279297.6042481-.2506523.402834-.3759765.9927532-.3759765 1.7697753v.3276368c0 .7698606.1271146 1.3597798.3813476 1.7697754.2542331.4099955.6319962.6149902 1.1333008.6149902.4834009 0 .8531075-.2049947 1.1091309-.6149902.2560234-.4099956.3840332-.9999148.3840332-1.7697754z" fill-rule="evenodd"/></svg>

<?xml version="1.0" encoding="UTF-8"?>
<svg width="40px" height="40px" viewBox="0 0 40 40" version="1.1" xmlns="http://www.w3.org/2000/svg" xmlns:xlink="http://www.w3.org/1999/xlink">
    <!-- Generator: Sketch 50.2 (55047) - http://www.bohemiancoding.com/sketch -->
    <title>Icons/question</title>
    <desc>Created with Sketch.</desc>
    <defs>
        <path d="M23.414,10 L28,14.586 L28,28 C28,29.103 27.103,30 26,30 L14,30 C12.897,30 12,29.103 12,28 L12,12 C12,10.898 12.897,10 14,10 L23.414,10 Z M26.001,28 L26,16 L22,16 L22,12 L14,12 L14,28 L26.001,28 Z M23.4412555,21.2509766 C23.4412555,21.9742875 23.3213023,22.6053847 23.0813923,23.1442871 C22.8414822,23.6831895 22.5102681,24.1155583 22.0877399,24.4414062 L23.3499469,25.4404297 L22.1844196,26.4287109 L20.5032673,25.0751953 C20.3457144,25.0966798 20.1881639,25.1074219 20.030611,25.1074219 C19.5257257,25.1074219 19.0638162,25.0187997 18.6448688,24.8415527 C18.2259214,24.6643058 17.8651666,24.4091814 17.5625934,24.0761719 C17.2600203,23.7431624 17.0245897,23.338544 16.8562946,22.8623047 C16.6879995,22.3860653 16.6038532,21.8489613 16.6038532,21.2509766 L16.6038532,20.934082 C16.6038532,20.3360973 16.6871043,19.7989933 16.8536091,19.3227539 C17.0201138,18.8465145 17.253754,18.4418962 17.5545368,18.1088867 C17.8553195,17.7758772 18.2151792,17.5198577 18.6341266,17.3408203 C19.053074,17.161783 19.5149835,17.0722656 20.0198688,17.0722656 C20.5175927,17.0722656 20.9759214,17.161783 21.3948688,17.3408203 C21.8138162,17.5198577 22.1745711,17.7758772 22.4771442,18.1088867 C22.7797173,18.4418962 23.0160431,18.8465145 23.1861286,19.3227539 C23.3562141,19.7989933 23.4412555,20.3360973 23.4412555,20.934082 L23.4412555,21.2509766 Z M21.5237751,20.9233398 C21.5237751,20.1463177 21.3939749,19.5563985 21.1343708,19.1535645 C20.8747666,18.7507304 20.5032697,18.5493164 20.0198688,18.5493164 C19.5185642,18.5493164 19.1425914,18.7507304 18.8919391,19.1535645 C18.6412868,19.5563985 18.5159626,20.1463177 18.5159626,20.9233398 L18.5159626,21.2509766 C18.5159626,22.0208372 18.6430772,22.6107564 18.8973102,23.020752 C19.1515433,23.4307475 19.5293064,23.6357422 20.030611,23.6357422 C20.5140119,23.6357422 20.8837185,23.4307475 21.1397419,23.020752 C21.3957653,22.6107564 21.5237751,22.0208372 21.5237751,21.2509766 L21.5237751,20.9233398 Z" id="path-1"></path>
    </defs>
    <g id="Icons/question" stroke="none" stroke-width="1" fill="none" fill-rule="evenodd">
        <mask id="mask-2" fill="white">
            <use xlink:href="#path-1"></use>
        </mask>
        <use id="Mask" fill="#000000" xlink:href="#path-1"></use>
    </g>
</svg>
